icons/AffinityPhoto.svg

<svg width="16" height="16" viewBox="0 0 16 16" fill="none" xmlns="http://www.w3.org/2000/svg">
<g clip-path="url(#clip0_1447_1829)">
<path fill-rule="evenodd" clip-rule="evenodd" d="M14.4375 0C15.2999 0 16 0.700124 16 1.5625V14.4375C16 15.2998 15.2999 16 14.4375 16H1.5625C0.700126 16 0 15.2998 0 14.4375V1.5625C0 0.700124 0.700126 0 1.5625 0H14.4375ZM14.8281 14.2031V10.1576H7.38657L10.0841 14.828L14.2156 14.828C14.5549 14.8213 14.8281 14.5439 14.8281 14.2031ZM2.16031 14.828H9.46938L5.81688 8.50432L2.16031 14.828ZM1.1736 14.2494C1.19156 14.4954 1.35234 14.7021 1.57344 14.7869L6.46579 6.31641H4.14328L1.17188 11.461L1.1736 14.2494ZM9.09032 6.60266C8.98579 6.42651 8.79219 6.30765 8.58985 6.3068H8.58282L7.42391 6.30651L7.4136 6.30668C7.20875 6.30924 7.01547 6.42941 6.9136 6.60408C6.70782 6.96063 6.29672 7.67372 6.29672 7.67372L6.29219 7.6816C6.19188 7.86032 6.19172 8.08708 6.29219 8.26261C6.29344 8.26508 6.90782 9.3285 6.90782 9.3285C6.90782 9.3285 6.91219 9.3363 6.91454 9.34011C7.01922 9.51627 7.21594 9.62416 7.41829 9.625L7.41964 9.625C7.45598 9.62504 8.21278 9.62587 8.59469 9.62427C8.79969 9.62172 8.99251 9.50775 9.09438 9.33308C9.16195 9.21611 9.22969 9.09924 9.29743 8.98237C9.4377 8.74036 9.57796 8.49837 9.71673 8.25558C9.81704 8.07686 9.81313 7.85569 9.71282 7.68016L9.70751 7.67135L9.09344 6.60804L9.09032 6.60266ZM9.54125 9.625L14.4045 1.20509C14.6508 1.28902 14.8281 1.52241 14.8281 1.79687V9.625H9.54125ZM13.8089 1.17188H7.11469L6.84157 1.64494L10.1886 7.43994L13.8089 1.17188ZM4.45063 5.78423H8.61751L6.53407 2.17712L4.45063 5.78423Z" fill="#FF00FF"/>
</g>
<defs>
<clipPath id="clip0_1447_1829">
<rect width="16" height="16" fill="white"/>
</clipPath>
</defs>
</svg>

<svg width="16" height="16" fill="none" xmlns="http://www.w3.org/2000/svg"><g clip-path="url(#a)"><path fill-rule="evenodd" clip-rule="evenodd" d="M14.438 0C15.3 0 16 .7 16 1.563v12.874C16 15.3 15.3 16 14.437 16H1.563C.7 16 0 15.3 0 14.437V1.563C0 .7.7 0 1.563 0h12.874zm.39 14.203v-4.045H7.387l2.697 4.67h4.132a.625.625 0 0 0 .612-.625zm-12.668.625h7.31L5.816 8.504 2.16 14.828zm-.986-.579a.626.626 0 0 0 .4.538l4.892-8.47H4.143L1.172 11.46l.002 2.788zM9.09 6.603a.599.599 0 0 0-.5-.296H7.413a.6.6 0 0 0-.5.297l-.616 1.07-.005.008c-.1.178-.1.405 0 .58l.616 1.066.007.012a.594.594 0 0 0 .503.285h1.177a.593.593 0 0 0 .5-.292l.202-.35.42-.727c.1-.18.096-.4-.004-.576l-.005-.009-.615-1.063-.003-.005zm.451 3.022 4.864-8.42a.626.626 0 0 1 .423.592v7.828H9.541zm4.268-8.453H7.115l-.273.473 3.347 5.795 3.62-6.268zM4.45 5.784h4.167L6.534 2.177 4.451 5.784z" fill="#F0F"/></g><defs><clipPath id="a"><path fill="#fff" d="M0 0h16v16H0z"/></clipPath></defs></svg>
